icons/desktop/16/svg/musical-note-16.svg

<svg width="16" height="16" viewBox="0 0 16 16" fill="none" xmlns="http://www.w3.org/2000/svg">
<g clip-path="url(#clip0_8069_32650)">
<path fill-rule="evenodd" clip-rule="evenodd" d="M9.99934 0.5C10.9789 0.500011 11.8996 0.550061 12.7533 0.632812L13.5843 0.725586L13.8382 0.770508C15.0857 1.04751 15.9993 2.15025 15.9993 3.45801L16.0013 12.9922C16.0012 13.5066 15.7779 14.0279 15.3402 14.3691L15.3392 14.3701C14.831 14.7649 14.1913 14.9999 13.4993 15C11.741 15 10.3354 13.4862 10.515 11.6934L10.5335 11.5439C10.766 10.0182 12.1698 9 13.6283 9H14.5003L14.4993 6H5.49934V12.9922C5.49929 13.5158 5.26778 14.0389 4.82649 14.3789C4.10291 14.935 3.12183 15.1637 2.11751 14.8721C1.20555 14.6069 0.468314 13.8901 0.164383 12.998L0.109695 12.8174C-0.426932 10.8197 1.0728 8.99902 3.00032 8.99902H3.99934V3.45801C3.99934 2.064 5.03723 0.900803 6.41341 0.726562C7.49094 0.589945 8.69314 0.5 9.99934 0.5ZM13.6283 10.5C12.8327 10.5 12.1688 11.0355 12.0286 11.707L12.0072 11.8428C11.9168 12.7439 12.6197 13.5 13.4993 13.5C13.8472 13.4999 14.1656 13.3826 14.4193 13.1855C14.4608 13.1525 14.5012 13.0846 14.5013 12.9922L14.5003 10.5H13.6283ZM3.00032 10.499C2.03792 10.499 1.28274 11.4045 1.55794 12.4287C1.6846 12.9014 2.07136 13.2964 2.53645 13.4316C3.06784 13.5859 3.55512 13.4641 3.91145 13.1904L3.94466 13.1572C3.97577 13.1179 3.9993 13.0612 3.99934 12.9922V10.499H3.00032ZM9.99934 2C8.76154 2 7.62235 2.08448 6.60188 2.21387C5.96847 2.29398 5.49934 2.8263 5.49934 3.45801V4.5H14.4993V3.45801C14.4993 2.82685 14.0295 2.2947 13.3949 2.21387C12.3747 2.08457 11.2366 2.00001 9.99934 2Z" fill="black"/>
</g>
<defs>
<clipPath id="clip0_8069_32650">
<rect width="16" height="16" fill="white"/>
</clipPath>
</defs>
</svg>

<!-- This Source Code Form is subject to the terms of the Mozilla Public
   - License, v. 2.0. If a copy of the MPL was not distributed with this
   - file, You can obtain one at http://mozilla.org/MPL/2.0/. -->
<svg xmlns="http://www.w3.org/2000/svg" width="16" height="16" fill="context-fill" fill-opacity="context-fill-opacity" viewBox="0 0 16 16">
    <path fill-rule="evenodd" d="M10 .5c.979 0 1.9.05 2.753.133l.831.093.254.045A2.75 2.75 0 0 1 16 3.458l.002 9.534c0 .515-.223 1.036-.66 1.377l-.002.001a3 3 0 0 1-4.824-2.677l.018-.15C10.767 10.019 12.17 9 13.629 9h.872V6h-9v6.992c0 .524-.232 1.047-.674 1.387a3.02 3.02 0 0 1-2.708.493 2.96 2.96 0 0 1-1.954-1.874l-.054-.18A3.005 3.005 0 0 1 3 8.998h1V3.458A2.754 2.754 0 0 1 6.412.727 29 29 0 0 1 10 .5m3.628 10c-.795 0-1.46.536-1.6 1.207l-.02.136a1.5 1.5 0 0 0 2.411 1.342.25.25 0 0 0 .082-.193V10.5zM3 10.499c-.962 0-1.717.906-1.442 1.93.127.472.513.867.978 1.003a1.52 1.52 0 0 0 1.375-.242l.034-.033a.27.27 0 0 0 .054-.165V10.5zM10 2c-1.238 0-2.378.084-3.398.214a1.254 1.254 0 0 0-1.103 1.244V4.5h9V3.458c0-.631-.47-1.163-1.104-1.244A27 27 0 0 0 9.999 2" clip-rule="evenodd" />
</svg>
